resources/icons/16px/drawer-left.svg

<?xml version="1.0" encoding="UTF-8"?>
<svg width="16px" height="16px" viewBox="0 0 16 16" version="1.1" xmlns="http://www.w3.org/2000/svg" xmlns:xlink="http://www.w3.org/1999/xlink">
    <title>drawer-left</title>
    <g id="drawer-left" stroke="none" stroke-width="1" fill="none" fill-rule="evenodd">
        <path d="M7,0 C7.55228475,0 8,0.44771525 8,1 L8,15 C8,15.5522847 7.55228475,16 7,16 L1,16 C0.44771525,16 0,15.5522847 0,15 L0,1 C0,0.44771525 0.44771525,0 1,0 L7,0 Z M6,2 L2,2 L2,14 L6,14 L6,2 Z M8.00000005,7 L12.5900001,7 L11.3000001,5.71000006 C11.1100001,5.53000006 11,5.28000006 11,5 C11,4.45000005 11.4500001,4 12,4 C12.2800001,4 12.5300001,4.11000005 12.7100001,4.29000005 L15.7100001,7.29000007 C15.8900001,7.47000007 16,7.72000007 16,8 C16,8.28000008 15.8900001,8.53000008 15.7100001,8.71000008 L12.7100001,11.7100001 C12.5300001,11.8900001 12.2800001,12 12,12 C11.4500001,12 11,11.5500001 11,11 C11,10.7200001 11.1100001,10.4700001 11.2900001,10.2900001 L12.5900001,9 L8.00000005,9 L8.00000005,7 Z" id="Shape" fill="#000000" fill-rule="nonzero"></path>
    </g>
</svg>

<svg xmlns="http://www.w3.org/2000/svg" viewBox="0 0 16 16">
  <path d="M7 0a1 1 0 0 1 1 1v14a1 1 0 0 1-1 1H1a1 1 0 0 1-1-1V1a1 1 0 0 1 1-1zM6 2H2v12h4zm2 5h4.59L11.3 5.71A.97.97 0 0 1 11 5a1.003 1.003 0 0 1 1.71-.71l3 3c.18.18.29.43.29.71s-.11.53-.29.71l-3 3a1.003 1.003 0 0 1-1.42-1.42L12.59 9H8z"/>
</svg>
